X: 42411
T: West Clare, The
R: reel
M: 4/4
K: Dminor
DE|F2DE FA{=B/}A2|AEGF DCA,E|F2DE FA{=B/}AA|AEGF D3E|
F2DE FA{=B/}AA|AEGF DCA,d|{e/}dcAG FGAB|AEGF D3d||
{e/}dcAG FGAd|{e/}dcAG FGE2|{e/}dcAG FGAB|AEGF D3d|
{e/}dcAG FGAd|{e/}dcAG FGE2|fgef dcAB|AEGF D2||["al fine"!fermata!D2||

